packages/ffe-icons/icons/filled/sm/more_vert.svg

<svg xmlns="http://www.w3.org/2000/svg" height="20" viewBox="0 -960 960 960" width="20"><path d="M479.788-221.233q-21.537 0-36.662-15.337t-15.125-36.874q0-21.537 15.337-36.661 15.337-15.125 36.874-15.125 21.537 0 36.662 15.337t15.125 36.874q0 21.537-15.337 36.662-15.337 15.124-36.874 15.124Zm0-206.768q-21.537 0-36.662-15.337t-15.125-36.874q0-21.537 15.337-36.662t36.874-15.125q21.537 0 36.662 15.337t15.125 36.874q0 21.537-15.337 36.662t-36.874 15.125Zm0-206.769q-21.537 0-36.662-15.337t-15.125-36.874q0-21.537 15.337-36.662 15.337-15.124 36.874-15.124 21.537 0 36.662 15.337t15.125 36.874q0 21.537-15.337 36.661-15.337 15.125-36.874 15.125Z"/></svg>

<svg xmlns="http://www.w3.org/2000/svg" height="20" viewBox="0 -960 960 960" width="20"><path d="M479.79-221.23q-21.54 0-36.66-15.34Q428-251.91 428-273.44q0-21.54 15.34-36.67 15.34-15.12 36.87-15.12 21.54 0 36.66 15.34Q532-294.56 532-273.02t-15.34 36.66q-15.34 15.13-36.87 15.13Zm0-206.77q-21.54 0-36.66-15.34Q428-458.68 428-480.21q0-21.54 15.34-36.66Q458.68-532 480.21-532q21.54 0 36.66 15.34Q532-501.32 532-479.79q0 21.54-15.34 36.66Q501.32-428 479.79-428Zm0-206.77q-21.54 0-36.66-15.34Q428-665.44 428-686.98t15.34-36.66q15.34-15.13 36.87-15.13 21.54 0 36.66 15.34Q532-708.09 532-686.56q0 21.54-15.34 36.67-15.34 15.12-36.87 15.12Z"/></svg>
